X: 1
T: My Mind Will Never Be Easy
R: slip jig
M: 9/8
L: 1/8
K: Amin
c2 B|:AGE EDE C2 D|E2 G GAE GcB|AGE EDE C2 D|1 E2 A ABG AcB:|2 E2 A ABG A3||
|:GAB cdB c3|E2 G GAE G3|ABc dcB AGF|1 E2 A ABG A3:|2 EAA ABG AcB||


Tune 191	Setting 12843

